common/app/assets/images/global/close.svg

<svg width="30" height="30" viewBox="0 0 30 30" xmlns="http://www.w3.org/2000/svg"><path d="M21 9.766l-.766-.766-5.234 4.779-5.234-4.779-.766.766 4.779 5.234-4.779 5.234.766.766 5.234-4.779 5.234 4.779.766-.766-4.779-5.234 4.779-5.234" fill="#fff"/></svg>

<svg width="30" height="30" viewBox="0 0 30 30" xmlns="http://www.w3.org/2000/svg"><path d="M21 9.766L20.234 9 15 13.78 9.766 9 9 9.766 13.78 15 9 20.234l.766.766L15 16.22 20.234 21l.766-.766L16.22 15 21 9.766" fill="#fff"/></svg>
